X: 18869
T: In Halle
R: reel
M: 4/4
K: Gmajor
~e3d eg AB-|~B3A Bd G2|Bd dB d2 BA|Bd dg ed Bd|
e2 ed eg AB-|~B3A Bd G2|Bd dB de A2-|1 A2 AG AG ED:|2 A2 AG AB dg||
|:ez ed e~g3|ed gd e~g3|az ag ab ~g2-|ga gd ed Bd|
~e3d e~g3|ed gd e~g3|bz ag ag ~f2-|fg fd AB dg:|

